icons/lines/twitch.svg

<svg xmlns="http://www.w3.org/2000/svg" width="24" height="24" viewBox="0 0 24 24" fill="none" stroke="currentColor" stroke-width="2" stroke-linecap="round" stroke-linejoin="round" >
  <path fill-rule="evenodd" clip-rule="evenodd" d="M4.5 2H21.5V14L16.5 19H11.5L9.5 22H6.5V19H2.5V5L4.5 2Z" stroke-miterlimit="10"/>
  <path d="M11 7H9V13H11V7Z" stroke-miterlimit="10"/>
  <path d="M16 7H14V13H16V7Z" stroke-miterlimit="10"/>
  </svg>

<svg xmlns="http://www.w3.org/2000/svg" width="24" height="24" viewBox="0 0 24 24" fill="none" stroke="currentColor" stroke-width="2" stroke-linecap="round" stroke-linejoin="round">
  <path d="M4.5 2h17v12l-5 5h-5l-2 3h-3v-3h-4V5z" />
  <rect x="14" y="7" width="2" height="6" />
  <rect x="9" y="7" width="2" height="6" />
</svg>
